modules/hawcons-filled/icons/icon-11-baseball-set.svg

<?xml version="1.0" encoding="UTF-8" standalone="no"?>
<svg width="32px" height="32px" viewBox="0 0 32 32" version="1.1" xmlns="http://www.w3.org/2000/svg" xmlns:xlink="http://www.w3.org/1999/xlink" xmlns:sketch="http://www.bohemiancoding.com/sketch/ns">
    <!-- Generator: Sketch 3.0.3 (7891) - http://www.bohemiancoding.com/sketch -->
    <title>icon 11 baseball set</title>
    <desc>Created with Sketch.</desc>
    <defs></defs>
    <g id="Page-1" stroke="none" stroke-width="1" fill="none" fill-rule="evenodd" sketch:type="MSPage">
        <g id="icon-11-baseball-set" sketch:type="MSArtboardGroup" fill="#929292">
            <path d="M27.7817928,24.2655362 C27.5607854,22.1597994 25.8875293,20.4865434 23.7817924,20.2655362 L23.7817928,20.2655362 C23.7981828,20.4216987 23.8065858,20.5802397 23.8065858,20.7407433 C23.8065858,23.2260246 21.7918672,25.2407433 19.3065858,25.2407433 C19.1460822,25.2407433 18.9875412,25.2323403 18.8313788,25.2159503 C19.0523862,27.321687 20.7256421,28.9949429 22.8313788,29.2159503 C22.8149888,29.0597878 22.8065858,28.9012469 22.8065858,28.7407433 C22.8065858,26.2554619 24.8213044,24.2407433 27.3065858,24.2407433 C27.4670894,24.2407433 27.6256304,24.2491462 27.7817928,24.2655362 L27.7817928,24.2655362 Z M27.7755685,25.2718921 C27.5332507,27.3326491 25.8984921,28.9674078 23.8377351,29.2097259 C23.8171918,29.0563213 23.8065858,28.8997709 23.8065858,28.7407433 C23.8065858,26.8077466 25.3735892,25.2407433 27.3065858,25.2407433 C27.4656134,25.2407433 27.6221639,25.2513493 27.7755684,25.2718926 L27.7755685,25.2718921 Z M22.775437,20.2717606 C20.7146799,20.5140784 19.0799212,22.1488369 18.8376032,24.2095939 C18.9910077,24.2301372 19.1475582,24.2407433 19.3065858,24.2407433 C21.2395824,24.2407433 22.8065858,22.6737399 22.8065858,20.7407433 C22.8065858,20.5817156 22.7959798,20.4251652 22.7754365,20.2717607 L22.775437,20.2717606 L22.775437,20.2717606 Z M13.1171206,15.8797052 L5.72752683,24.2545782 L5.72752683,24.2545782 L8.01261652,26.5396679 L16.3874895,19.1500741 L13.1171206,15.8797052 L13.1171206,15.8797052 L13.1171206,15.8797052 Z M13.7800332,15.1284042 L23.5419661,4.06488036 C24.74585,2.70047856 26.7491263,2.64165316 28.0279187,3.92044561 L28.3467491,4.23927596 C29.6245784,5.51710525 29.5608759,7.52649783 28.2023143,8.72522861 L17.1387904,18.4871615 L13.7800332,15.1284042 L13.7800332,15.1284042 L13.7800332,15.1284042 Z M7.32791189,27.2691768 C7.51281984,27.7962338 7.39560234,28.4071263 6.97413046,28.8285981 C6.38426003,29.4184686 5.43854436,29.4143324 4.85269354,28.8284815 L3.43871314,27.4145011 C2.85475422,26.8305422 2.85281012,25.8788507 3.43859656,25.2930642 C3.86243095,24.8692298 4.46997851,24.7520648 4.99574455,24.9370094 L7.32791189,27.2691768 L7.32791189,27.2691768 L7.32791189,27.2691768 Z" id="baseball-set" sketch:type="MSShapeGroup"></path>
        </g>
    </g>
</svg>

<svg width="32" height="32" xmlns="http://www.w3.org/2000/svg"><path d="M27.782 24.266a4.502 4.502 0 0 0-4-4 4.5 4.5 0 0 1-4.95 4.95 4.502 4.502 0 0 0 4 4 4.5 4.5 0 0 1 4.95-4.95zm-.006 1.006a4.502 4.502 0 0 1-3.938 3.938 3.5 3.5 0 0 1 3.938-3.938zm-5-5a4.502 4.502 0 0 0-3.938 3.938 3.5 3.5 0 0 0 3.938-3.938zm-9.659-4.392l-7.39 8.375 2.286 2.285 8.374-7.39-3.27-3.27zm.663-.752l9.762-11.063c1.204-1.365 3.207-1.423 4.486-.145l.319.32c1.278 1.277 1.214 3.286-.145 4.485L17.14 18.487l-3.359-3.359zM7.328 27.27a1.502 1.502 0 0 1-.354 1.56c-.59.59-1.535.585-2.121 0l-1.414-1.414a1.502 1.502 0 0 1 1.557-2.478l2.332 2.332z" fill="#929292" fill-rule="evenodd"/></svg>
